X:0759
T:The Isle of Sky.
M:C
L:1/8
Q:1/4=132
I: || ||
Z:Jack Campin * www.campin.me.uk * 2009
K:D
c|dAFA          dAFA       |GEEd  eBBc|dAFA        dAFA       |GEEA        FDD
c|dA F/G/A/F/   dA F/G/A/F/|GEEd  eBBc|dA F/G/A/F/ dA F/G/A/F/|GE F/G/A/G/ FDD    ||
a|adab          afdf       |edef  eBBa|adad'       afdf       |e>deg      (d2    d)
a|ad a/d'/c'/b/ afdf       |e>def eBBa|adbd        c'dd'd     |d'daf       d/d/d d|]

